dist/svgs/unicons/line/flip-v.svg

<svg xmlns="http://www.w3.org/2000/svg" viewBox="0 0 24 24"><path d="M7.6 15.18a1 1 0 00-1.42 1.42l1.06 1.06a1 1 0 001.42 0 1 1 0 000-1.42zm-3.79-5.4l-1.06 1.06a.91.91 0 00-.19.26 1 1 0 00-.27 1.61l1.06 1.06a1 1 0 001.42 0 1 1 0 000-1.42L4.41 12l.81-.81a1 1 0 00-1.41-1.41zm4.19.79a1 1 0 00-1 1v1.5a1 1 0 002 0v-1.5a1 1 0 00-1-1zm13.71.72l-5-5a1 1 0 00-1.09-.21A1 1 0 0015 7v10a1 1 0 00.62.92.84.84 0 00.38.08 1 1 0 00.71-.29l5-5a1 1 0 000-1.42zM17 14.59V9.41L19.59 12zM12 2a1 1 0 00-1 1v18a1 1 0 002 0V3a1 1 0 00-1-1zM8.38 6.08a1 1 0 00-1.09.21L6.64 7a1 1 0 000 1.41 1 1 0 00.7.3 1 1 0 00.45-.11A1 1 0 009 7.57V7a1 1 0 00-.62-.92z"/></svg>

<svg xmlns="http://www.w3.org/2000/svg" viewBox="0 0 24 24"><path d="M7.6,15.18A1,1,0,0,0,6.18,16.6l1.06,1.06a1,1,0,0,0,1.42,0,1,1,0,0,0,0-1.42ZM3.81,9.78,2.75,10.84a.91.91,0,0,0-.19.26,1,1,0,0,0-.27,1.61l1.06,1.06a1,1,0,0,0,1.42,0,1,1,0,0,0,0-1.42L4.41,12l.81-.81A1,1,0,0,0,3.81,9.78ZM8,10.57a1,1,0,0,0-1,1v1.5a1,1,0,0,0,2,0v-1.5A1,1,0,0,0,8,10.57Zm13.71.72-5-5a1,1,0,0,0-1.09-.21A1,1,0,0,0,15,7V17a1,1,0,0,0,.62.92A.84.84,0,0,0,16,18a1,1,0,0,0,.71-.29l5-5A1,1,0,0,0,21.71,11.29ZM17,14.59V9.41L19.59,12ZM12,2a1,1,0,0,0-1,1V21a1,1,0,0,0,2,0V3A1,1,0,0,0,12,2ZM8.38,6.08a1,1,0,0,0-1.09.21L6.64,7a1,1,0,0,0,0,1.41,1,1,0,0,0,.7.3,1,1,0,0,0,.45-.11A1,1,0,0,0,9,7.57V7A1,1,0,0,0,8.38,6.08Z"/></svg>
